X:1
T: Tap o' Noth
C:Alexander Walker
R:Strathspey
Q: 128
K:Eb
M:4/4
L:1/16
|:B,2|EE3 G3E CF3 D3B,|EE3 G3E B3E G3E|A3c G3B C3F D3B,|C3F EDCB, E6 B,2|
EE3 G3E CF3 D3B,|EE3 G3E B3E G3E|A3c G3B C3F D3B,|C3F EDCB, E6 f2|
ge3 B3e c3e B3e|e3B g3e df3 f3b|ge3 B3e c3e B3A|GE3 F3D E6 f2|
ge3 B3e c3e B3e|e3B g3e df3 f3b|ge3 d3f ce3 B3G|C3F EDCB, E6:|
